X:1
T:Gloire  Dieu
C:Haendel
M:4/4
L:1/4
K:Em
"Mim"EG "Lam"A2|F/F/ G/A/ B2|GA/G/ FE|^D^C/D/ EE|EG A2|F/F/ G/A/ B2|GA/G/ FF|F/F/ G/F/E2||
B,B,/E/ CC|DC B,3/B,/|EE FE|^D2 E2|z/G/ F/G/ AA|FA B2|
GG A2|GF GE|B3/B/ cB|A2 GD/D/|EG/G/ A2|GF E2||
